X:1
T:The Sound of Music - Edelweiss
T:Richard Rodgers
%%score 1 { ( 2 4 ) | 3 }
L:1/8
Q:1/4=100
M:3/4
K:Bb
V:1 bass nm="Violoncello" snm="Vc."
V:2 treble nm="Piano" snm="Pno."
V:4 treble 
V:3 bass 
V:1
 z6 | z6 | z6 | z6 | D,4 F,2 | C6 | B,4 F,2 | E,6 | D,4 D,2 | D,2 E,2 F,2 | G,6 | F,6 | D,4 F,2 | %13
 C6 | B,4 F,2 | E,6 | D,4 F,2 | F,2 G,2 A,2 | B,6 | B,6 | C3 F, F,2 | A,2 G,2 F,2 | D,4 F,2 | B,6 | %24
 G,4 B,2 | C4 B,2 | A,6 | F,6 | D,4 F,2 | C6 | B,4 F,2 | E,6 | D,4 F,2 | F,2 G,2 A,2 | B,6 | B,6 | %36
 D,4 F,2 | C6 | B,4 F,2 | E,6 | D,4 D,2 | D,2 E,2 F,2 | G,6 | F,6 | D,4 F,2 | C6 | B,4 F,2 | E,6 | %48
 D,4 F,2 | F,2 G,2 A,2 | B,6 | B,6 | C3 F, F,2 | A,2 G,2 F,2 | D,4 F,2 | B,6 | G,4 B,2 | C4 B,2 | %58
 A,6 | F,6 | D,4 F,2 | C6 | B,4 F,2 | E,6 | D,4 F,2 | F,2 G,2 A,2 | B,6 | B,6- | B,6- | B,6- | %70
 B,6- | B,2 z2 z2 |] %72
V:2
 [DBd]6 | [FBdf]6 | [EGBe]6 | [EAcf]6 | z2 [F,B,]4 | z2 [EF]2 [EF]2 | z2 [F,B,]4 | z2 E,2 B,2 | %8
 z2 [F,B,]4 | [F,B,]6 | z2 [B,E]2 [B,E]2 | z2 [F,A,E]2 [C,A,E]2 | z2 [F,B,]4 | z2 [EF]2 [EF]2 | %14
 z2 [F,B,]4 | z2 E,2 B,2 | z2 [D,B,]4 | [A,E]6 | z2 [B,DF]2 [B,DF]2 | z2 [B,DF]2 [B,DF]2 | %20
 E3 C C2 | A,6 | z6 | z2 B,2 B,2 | z2 B,4 | z2 C4 | z2 C2 C2 | z2 A,2 A,2 | z2 F,4 | z2 D,4 | %30
 z2 E,4 | z2 E,4 | z2 F,4 | z2 F,4 | z2 B,2 B,2 | z2 B,2 B,2 | z2 [F,B,]4 | z2 [EF]2 [EF]2 | %38
 z2 [F,B,]4 | z2 E,2 B,2 | z2 [F,B,]4 | [F,B,]6 | z2 [B,E]2 [B,E]2 | z2 [F,A,E]2 [C,A,E]2 | %44
 z2 [F,B,]4 | z2 [EF]2 [EF]2 | z2 [F,B,]4 | z2 E,2 B,2 | z2 [D,B,]4 | [A,E]6 | z2 [B,DF]2 [B,DF]2 | %51
 z2 [B,DF]2 [B,DF]2 | E3 C C2 | A,6 | z6 | z2 B,2 B,2 | z2 B,4 | z2 C4 | z2 C2 C2 | z2 A,2 A,2 | %60
 z2 F,4 | z2 D,4 | z2 E,4 | z2 E,4 | z2 F,4 | z2 F,4 | D2 F2 F2 | D2 F2 F2 | z2 B,2 E2 | %69
 z2 B,2 E2 | z2 [D,F,B,]2 [F,B,D]2 | [B,DF]2 z2 z2 |] %72
V:3
 F,2 F,2 F,2 | F,2 F,2 F,2 | F,2 F,2 F,2 | F,2 F,2 F,2 | B,,6 | A,,6 | D,6 | G,,6 | F,,6 | G,,6 | %10
 [C,,C,]6 | F,,6 | B,,6 | A,,6 | D,6 | G,,6 | F,,6 | [F,,F,]6 | B,,6 | F,,6 | A,,2 F,2 z2 | %21
 F,,2 F,2 z2 | B,,2 F,2 z2 | F,,2 F,2 z2 | E,,2 B,,2 G,2 | =E,,2 C,2 G,2 | F,,2 C,2 A,2 | %27
 F,,2 C,2 F,2 | B,,6 | ^G,,6 | G,,6 | ^F,,6 | F,,6 | F,,6 | B,,2 F,2 z2 | F,,2 F,2 z2 | B,,6 | %37
 A,,6 | D,6 | G,,6 | F,,6 | G,,6 | [C,,C,]6 | F,,6 | B,,6 | A,,6 | D,6 | G,,6 | F,,6 | [F,,F,]6 | %50
 B,,6 | F,,6 | A,,2 F,2 z2 | F,,2 F,2 z2 | B,,2 F,2 z2 | F,,2 F,2 z2 | E,,2 B,,2 G,2 | %57
 =E,,2 C,2 G,2 | F,,2 C,2 A,2 | F,,2 C,2 F,2 | B,,6 | ^G,,6 | G,,6 | ^F,,6 | F,,6 | F,,6 | %66
 B,,2 F,2 D2 | F,,2 D,2 B,2 | C,2 G,2 B,2 | F,,2 G,2 A,2 | [B,,,F,,]6- | [B,,,F,,]2 z2 z2 |] %72
V:4
 x6 | x6 | x6 | x6 | x6 | z2 F,4 | x6 | x6 | x6 | x6 | x6 | x6 | x6 | z2 F,4 | x6 | x6 | x6 | x6 | %18
 z2 F,4 | z2 F,4 | x6 | x6 | x6 | x6 | x6 | x6 | x6 | x6 | x6 | x6 | x6 | x6 | x6 | x6 | x6 | x6 | %36
 x6 | z2 F,4 | x6 | x6 | x6 | x6 | x6 | x6 | x6 | z2 F,4 | x6 | x6 | x6 | x6 | z2 F,4 | z2 F,4 | %52
 x6 | x6 | x6 | x6 | x6 | x6 | x6 | x6 | x6 | x6 | x6 | x6 | x6 | x6 | x6 | x6 | x6 | x6 | x6 | %71
 x6 |] %72

